Educa/src/img/icons/dialog.svg

<svg width="45" height="45" viewBox="0 0 45 45" fill="none" xmlns="http://www.w3.org/2000/svg">
<path d="M41.1796 26.9451C40.8157 26.0452 39.7911 25.6103 38.8911 25.9743C37.991 26.3382 37.5563 27.3627 37.9202 28.2628L39.9905 33.3838L33.8418 30.6734C33.3967 30.4772 32.8902 30.4741 32.4429 30.665C30.3416 31.5616 28.0905 32.0162 25.7523 32.0162C16.3416 32.0162 10.0199 24.6479 10.0199 17.7659C10.0199 9.90837 17.0774 3.51574 25.7523 3.51574C34.4272 3.51574 41.4847 9.90837 41.4847 17.7659C41.4847 18.379 41.4275 19.113 41.3281 19.7798C41.1849 20.74 41.8471 21.6344 42.8073 21.7777C43.7676 21.9213 44.6621 21.2587 44.8053 20.2985C44.931 19.4556 45.0003 18.5562 45.0003 17.7659C45.0003 12.9909 42.9783 8.51038 39.3065 5.14989C35.6782 1.82903 30.8645 0.00012207 25.7523 0.00012207C20.6401 0.00012207 15.8265 1.82903 12.1981 5.1498C8.91697 8.15284 6.95455 12.0506 6.57389 16.2534C2.44682 18.9865 0.0003943 23.366 0.0003943 28.0833C0.0003943 31.0301 0.928781 33.8261 2.69599 36.2323L0.128539 42.5834C-0.139615 43.2466 0.0209607 44.0063 0.53468 44.5042C0.869455 44.8289 1.31058 45.0001 1.75855 45.0001C1.99788 45 2.23923 44.9513 2.46722 44.8507L9.87014 41.5873C11.7324 42.2805 13.7008 42.6315 15.7327 42.6315C15.7766 42.6315 15.8198 42.6281 15.8629 42.6249C18.8017 42.6026 21.6588 41.8297 24.1333 40.3831C26.3497 39.0872 28.1729 37.3071 29.4511 35.2048C30.699 34.9807 31.9188 34.6421 33.1027 34.1896L42.5334 38.3468C42.7615 38.4473 43.0027 38.4962 43.242 38.4962C43.69 38.4961 44.1312 38.3249 44.466 38.0004C44.9797 37.5024 45.1403 36.7428 44.8722 36.0795L41.1796 26.9451ZM15.7329 39.1114C15.7089 39.1114 15.6855 39.114 15.6617 39.115C13.8668 39.1058 12.1392 38.753 10.5258 38.0647C10.0785 37.8737 9.57201 37.8768 9.12694 38.073L5.01041 39.8876L6.33835 36.6027C6.58383 35.9955 6.47124 35.302 6.04638 34.8036C4.39096 32.8615 3.51601 30.5378 3.51601 28.0833C3.51601 25.2743 4.6977 22.6127 6.76523 20.5945C7.40894 24.1036 9.2252 27.4603 11.965 30.0972C15.3744 33.3784 19.884 35.2793 24.7536 35.5081C22.4674 37.7586 19.1958 39.1114 15.7329 39.1114Z" fill="white"/>
<path d="M25.6641 19.5997C26.6349 19.5997 27.4219 18.8127 27.4219 17.8419C27.4219 16.8711 26.6349 16.0841 25.6641 16.0841C24.6933 16.0841 23.9063 16.8711 23.9063 17.8419C23.9063 18.8127 24.6933 19.5997 25.6641 19.5997Z" fill="white"/>
<path d="M32.6953 19.5997C33.6661 19.5997 34.4531 18.8127 34.4531 17.8419C34.4531 16.8711 33.6661 16.0841 32.6953 16.0841C31.7245 16.0841 30.9375 16.8711 30.9375 17.8419C30.9375 18.8127 31.7245 19.5997 32.6953 19.5997Z" fill="white"/>
<path d="M18.6329 19.5997C19.6037 19.5997 20.3907 18.8127 20.3907 17.8419C20.3907 16.8711 19.6037 16.0841 18.6329 16.0841C17.6621 16.0841 16.8751 16.8711 16.8751 17.8419C16.8751 18.8127 17.6621 19.5997 18.6329 19.5997Z" fill="white"/>
</svg>

<svg xmlns="http://www.w3.org/2000/svg" xmlns:xlink="http://www.w3.org/1999/xlink" width="45" height="45" fill="none" xmlns:v="https://vecta.io/nano"><g fill="#fff"><path d="M41.18 26.945a1.76 1.76 0 0 0-2.288-.971 1.76 1.76 0 0 0-.971 2.288l2.07 5.121-6.149-2.71a1.76 1.76 0 0 0-1.399-.008c-2.101.897-4.352 1.351-6.691 1.351-9.411 0-15.732-7.368-15.732-14.25 0-7.858 7.058-14.25 15.732-14.25s15.732 6.393 15.732 14.25c0 .613-.057 1.347-.157 2.014a1.76 1.76 0 0 0 1.479 1.998 1.76 1.76 0 0 0 1.998-1.479A17.75 17.75 0 0 0 45 17.766c0-4.775-2.022-9.256-5.694-12.616C35.678 1.829 30.865 0 25.752 0s-9.926 1.829-13.554 5.15c-3.281 3.003-5.244 6.901-5.624 11.104C2.447 18.987 0 23.366 0 28.083c0 2.947.928 5.743 2.696 8.149L.129 42.583a1.76 1.76 0 0 0 .406 1.921c.335.325.776.496 1.224.496.239 0 .481-.049.709-.149l7.403-3.263a16.73 16.73 0 0 0 5.863 1.044c.044 0 .087-.003.13-.007 2.939-.022 5.796-.795 8.27-2.242 2.216-1.296 4.04-3.076 5.318-5.178a20.23 20.23 0 0 0 3.652-1.015l9.431 4.157c.228.1.469.149.709.149a1.76 1.76 0 0 0 1.63-2.417l-3.693-9.134zM15.733 39.111c-.024 0-.047.003-.071.004-1.795-.009-3.522-.362-5.136-1.05-.447-.191-.954-.188-1.399.008L5.01 39.888l1.328-3.285a1.76 1.76 0 0 0-.292-1.799c-1.655-1.942-2.53-4.266-2.53-6.72 0-2.809 1.182-5.471 3.249-7.489.644 3.509 2.46 6.866 5.2 9.503 3.409 3.281 7.919 5.182 12.789 5.411-2.286 2.251-5.558 3.603-9.021 3.603z"/><use xlink:href="#B"/><use xlink:href="#B" x="7.031"/><use xlink:href="#B" x="-7.031"/></g><defs ><path id="B" d="M25.664 19.6a1.76 1.76 0 0 0 1.758-1.758 1.76 1.76 0 0 0-1.758-1.758 1.76 1.76 0 0 0-1.758 1.758 1.76 1.76 0 0 0 1.758 1.758z"/></defs></svg>
